images/menu-icon.svg

<svg xmlns="http://www.w3.org/2000/svg" width="277.5" height="173.4" viewBox="0 0 277.5 173.4"><style type="text/css">.st0{fill:#FEFAD6;}</style><path class="st0" d="M251.2 46.4h-227.3c-6.6 0-12-5.4-12-12v-10.6c0-6.6 5.4-12 12-12h227.3c6.6 0 12 5.4 12 12v10.5c0 6.7-5.4 12.1-12 12.1zM251.2 103.4h-227.3c-6.6 0-12-5.4-12-12v-10.5c0-6.6 5.4-12 12-12h227.3c6.6 0 12 5.4 12 12v10.5c0 6.6-5.4 12-12 12zM251.2 158.6h-227.3c-6.6 0-12-5.4-12-12v-10.6c0-6.6 5.4-12 12-12h227.3c6.6 0 12 5.4 12 12v10.5c0 6.7-5.4 12.1-12 12.1z"/></svg>

<?xml version="1.0" encoding="utf-8"?>
<!-- Generator: Adobe Illustrator 18.1.1, SVG Export Plug-In . SVG Version: 6.00 Build 0)  -->
<svg version="1.1" id="Layer_1" xmlns="http://www.w3.org/2000/svg" xmlns:xlink="http://www.w3.org/1999/xlink" x="0px" y="0px"
	 width="277.5px" height="173.4px" viewBox="0 0 277.5 173.4" style="enable-background:new 0 0 277.5 173.4;" xml:space="preserve"
	>
<style type="text/css">
	.st0{fill:#FEFAD6;}
</style>
<path class="st0" d="M251.2,46.4H23.9c-6.6,0-12-5.4-12-12V23.8c0-6.6,5.4-12,12-12h227.3c6.6,0,12,5.4,12,12v10.5
	C263.2,41,257.8,46.4,251.2,46.4z"/>
<path class="st0" d="M251.2,103.4H23.9c-6.6,0-12-5.4-12-12V80.9c0-6.6,5.4-12,12-12h227.3c6.6,0,12,5.4,12,12v10.5
	C263.2,98,257.8,103.4,251.2,103.4z"/>
<path class="st0" d="M251.2,158.6H23.9c-6.6,0-12-5.4-12-12V136c0-6.6,5.4-12,12-12h227.3c6.6,0,12,5.4,12,12v10.5
	C263.2,153.2,257.8,158.6,251.2,158.6z"/>
<g>
</g>
<g>
</g>
<g>
</g>
<g>
</g>
<g>
</g>
<g>
</g>
</svg>
